X: 39908
T: Thomas G
R: jig
M: 6/8
K: Gmajor
|:D2 F G2 B|AGE GED|d3 cBA|BAG AGE|
DEF G2 B|AGE GED|d3 cBA|BAG G3:|
|:d3 cBA|BAG AGE|DEF G2 B|AGE GED|
d3 cBA|BAG AGE|DEF G2 B|AGF G3:|

